; generated by Slic3r 1.3.0 on 2019-11-07 at 10:51:37

; external perimeters extrusion width = 0.33mm (0.93mm^3/s)
; perimeters extrusion width = 0.40mm (1.77mm^3/s)
; infill extrusion width = 0.38mm (1.99mm^3/s)
; solid infill extrusion width = 0.40mm (2.12mm^3/s)
; top infill extrusion width = 0.40mm (1.77mm^3/s)
; support material extrusion width = 0.33mm (0.00mm^3/s)

M107
M104 S210 ; set temperature
G28 ; home all axes
G1 Z5 F5000 ; lift nozzle

; Filament gcode

M109 S210 ; set temperature and wait for it to be reached
G21 ; set units to millimeters
G90 ; use absolute coordinates
M82 ; use absolute distances for extrusion
G92 E0
G1 Z-3.800 F7800.000
G1 E-2.00000 F2400.00000
G92 E0
G1 X66.509 Y53.797 F7800.000
G1 E2.00000 F2400.00000
G1 F1200
G1 X67.965 Y52.087 E2.02269
G1 X69.926 Y50.991 E2.04539
G1 X71.472 Y50.665 E2.06136
G1 X87.331 Y49.343 E2.22214
G1 X87.859 Y49.321 E2.22748
G1 X100.000 Y49.321 E2.35014
G1 X128.300 Y50.650 E2.63638
G1 X130.489 Y51.151 E2.65907
G1 X132.368 Y52.382 E2.68176
G1 X133.702 Y54.189 E2.70446
G1 X134.356 Y56.873 E2.73236
G1 X135.677 Y122.818 E3.39876
G1 X135.679 Y135.219 E3.52405
G1 X135.589 Y136.283 E3.53484
G1 X134.267 Y144.064 E3.61459
G1 X133.506 Y146.178 E3.63728
G1 X132.057 Y147.894 E3.65997
G1 X130.102 Y149.000 E3.68267
G1 X128.721 Y149.316 E3.69698
G1 X117.147 Y150.638 E3.81468
G1 X116.426 Y150.679 E3.82197
G1 X101.369 Y150.672 E3.97409
G1 X71.717 Y149.351 E4.27398
G1 X69.526 Y148.856 E4.29667
G1 X67.644 Y147.630 E4.31937
G1 X66.305 Y145.826 E4.34206
G1 X65.644 Y143.118 E4.37022
G1 X64.364 Y74.377 E5.06486
G1 X64.362 Y64.337 E5.16629
G1 X64.457 Y63.244 E5.17738
G1 X65.738 Y55.907 E5.25262
G1 X66.493 Y53.840 E5.27486
G1 E3.27486 F2400.00000
G92 E0
G1 X126.372 Y141.372 F7800.000
G1 E2.00000 F2400.00000
G1 F1200
G1 X73.628 Y141.372 E2.53288
G1 X73.628 Y58.628 E3.36886
G1 X126.372 Y58.628 E3.90174
G1 X126.372 Y141.327 E4.73727
G1 X126.729 Y141.729 F7800.000
G1 F1200
G1 X73.271 Y141.729 E5.27737
G1 X73.271 Y58.271 E6.12056
G1 X126.729 Y58.271 E6.66066
G1 X126.729 Y141.684 E7.50340
G1 X127.086 Y142.086 F7800.000
G1 F1200
G1 X72.914 Y142.086 E8.05071
G1 X72.914 Y57.914 E8.90112
G1 X127.086 Y57.914 E9.44843
G1 X127.086 Y142.041 E10.29839
G1 X127.443 Y142.443 F7800.000
G1 F1200
G1 X72.557 Y142.443 E10.85292
G1 X72.557 Y57.557 E11.71054
G1 X127.443 Y57.557 E12.26507
G1 X127.443 Y142.398 E13.12224
G1 X127.800 Y142.800 F7800.000
G1 F1200
G1 X72.200 Y142.800 E13.68398
G1 X72.200 Y57.200 E14.54883
G1 X127.800 Y57.200 E15.11057
G1 X127.800 Y142.755 E15.97496
G1 X127.516 Y142.702 F7800.000
G1 E13.97496 F2400.00000
G92 E0
G1 X125.876 Y141.153 F7800.000
G1 E2.00000 F2400.00000
G1 F1200
G1 X126.153 Y140.876 E2.00398
G1 X126.153 Y140.370 E2.00910
G1 X125.370 Y141.153 E2.02032
G1 X124.864 Y141.153 E2.02544
G1 X126.153 Y139.864 E2.04390
G1 X126.153 Y139.358 E2.04902
G1 X124.358 Y141.153 E2.07472
G1 X123.852 Y141.153 E2.07984
G1 X126.153 Y138.852 E2.11278
G1 X126.153 Y138.346 E2.11790
G1 X123.346 Y141.153 E2.15808
G1 X122.840 Y141.153 E2.16320
G1 X126.153 Y137.840 E2.21062
G1 X126.153 Y137.334 E2.21574
G1 X122.334 Y141.153 E2.27041
G1 X121.829 Y141.153 E2.27553
G1 X126.153 Y136.829 E2.33743
G1 X126.153 Y136.323 E2.34255
G1 X121.323 Y141.153 E2.41170
G1 X120.817 Y141.153 E2.41682
G1 X126.153 Y135.817 E2.49320
G1 X126.153 Y135.311 E2.49832
G1 X120.311 Y141.153 E2.58195
G1 X119.805 Y141.153 E2.58707
G1 X126.153 Y134.805 E2.67794
G1 X126.153 Y134.299 E2.68306
G1 X119.299 Y141.153 E2.78117
G1 X118.793 Y141.153 E2.78629
G1 X126.153 Y133.793 E2.89164
G1 X126.153 Y133.287 E2.89676
G1 X118.287 Y141.153 E3.00935
G1 X117.782 Y141.153 E3.01447
G1 X126.153 Y132.782 E3.13430
G1 X126.153 Y132.276 E3.13942
G1 X117.276 Y141.153 E3.26649
G1 X116.770 Y141.153 E3.27161
G1 X126.153 Y131.770 E3.40593
G1 X126.153 Y131.264 E3.41105
G1 X116.264 Y141.153 E3.55260
G1 X115.758 Y141.153 E3.55772
G1 X126.153 Y130.758 E3.70652
G1 X126.153 Y130.252 E3.71164
G1 X115.252 Y141.153 E3.86767
G1 X114.746 Y141.153 E3.87279
G1 X126.153 Y129.746 E4.03607
G1 X126.153 Y129.240 E4.04119
G1 X114.240 Y141.153 E4.21171
G1 X113.734 Y141.153 E4.21683
G1 X126.153 Y128.735 E4.39459
G1 X126.153 Y128.229 E4.39971
G1 X113.229 Y141.153 E4.58471
G1 X112.723 Y141.153 E4.58983
G1 X126.153 Y127.723 E4.78207
G1 X126.153 Y127.217 E4.78719
G1 X112.217 Y141.153 E4.98667
G1 X111.711 Y141.153 E4.99179
G1 X126.153 Y126.711 E5.19851
G1 X126.153 Y126.205 E5.20363
G1 X111.205 Y141.153 E5.41760
G1 X110.699 Y141.153 E5.42272
G1 X126.153 Y125.699 E5.64392
G1 X126.153 Y125.193 E5.64904
G1 X110.193 Y141.153 E5.87749
G1 X109.687 Y141.153 E5.88261
G1 X126.153 Y124.687 E6.11829
G1 X126.153 Y124.182 E6.12341
G1 X109.182 Y141.153 E6.36634
G1 X108.676 Y141.153 E6.37146
G1 X126.153 Y123.676 E6.62163
G1 X126.153 Y123.170 E6.62675
G1 X108.170 Y141.153 E6.88416
G1 X107.664 Y141.153 E6.88928
G1 X126.153 Y122.664 E7.15393
G1 X126.153 Y122.158 E7.15905
G1 X107.158 Y141.153 E7.43094
G1 X106.652 Y141.153 E7.43606
G1 X126.153 Y121.652 E7.71519
G1 X126.153 Y121.146 E7.72031
G1 X106.146 Y141.153 E8.00668
G1 X105.640 Y141.153 E8.01180
G1 X126.153 Y120.640 E8.30541
G1 X126.153 Y120.135 E8.31053
G1 X105.135 Y141.153 E8.61139
G1 X104.629 Y141.153 E8.61651
G1 X126.153 Y119.629 E8.92460
G1 X126.153 Y119.123 E8.92972
G1 X104.123 Y141.153 E9.24506
G1 X103.617 Y141.153 E9.25018
G1 X126.153 Y118.617 E9.57276
G1 X126.153 Y118.111 E9.57788
G1 X103.111 Y141.153 E9.90769
G1 X102.605 Y141.153 E9.91281
G1 X126.153 Y117.605 E10.24987
G1 X126.153 Y117.099 E10.25499
G1 X102.099 Y141.153 E10.59929
G1 X101.593 Y141.153 E10.60441
G1 X126.153 Y116.593 E10.95595
G1 X126.153 Y116.088 E10.96107
G1 X101.088 Y141.153 E11.31985
G1 X100.582 Y141.153 E11.32497
G1 X126.153 Y115.582 E11.69100
G1 X126.153 Y115.076 E11.69612
G1 X100.076 Y141.153 E12.06938
G1 X99.570 Y141.153 E12.07450
G1 X126.153 Y114.570 E12.45500
G1 X126.153 Y114.064 E12.46012
G1 X99.064 Y141.153 E12.84787
G1 X98.558 Y141.153 E12.85299
G1 X126.153 Y113.558 E13.24797
G1 X126.153 Y113.052 E13.25309
G1 X98.052 Y141.153 E13.65532
G1 X97.546 Y141.153 E13.66044
G1 X126.153 Y112.546 E14.06991
G1 X126.153 Y112.040 E14.07503
G1 X97.040 Y141.153 E14.49174
G1 X96.535 Y141.153 E14.49686
G1 X126.153 Y111.535 E14.92081
G1 X126.153 Y111.029 E14.92593
G1 X96.029 Y141.153 E15.35712
G1 X95.523 Y141.153 E15.36224
G1 X126.153 Y110.523 E15.80067
G1 X126.153 Y110.017 E15.80579
G1 X95.017 Y141.153 E16.25146
G1 X94.511 Y141.153 E16.25658
G1 X126.153 Y109.511 E16.70949
G1 X126.153 Y109.005 E16.71461
G1 X94.005 Y141.153 E17.17477
G1 X93.499 Y141.153 E17.17989
G1 X126.153 Y108.499 E17.64728
G1 X126.153 Y107.993 E17.65240
G1 X92.993 Y141.153 E18.12704
G1 X92.488 Y141.153 E18.13216
G1 X126.153 Y107.488 E18.61403
G1 X126.153 Y106.982 E18.61915
G1 X91.982 Y141.153 E19.10827
G1 X91.476 Y141.153 E19.11339
G1 X126.153 Y106.476 E19.60975
G1 X126.153 Y105.970 E19.61487
G1 X90.970 Y141.153 E20.11847
G1 X90.464 Y141.153 E20.12359
G1 X126.153 Y105.464 E20.63443
G1 X126.153 Y104.958 E20.63955
G1 X89.958 Y141.153 E21.15763
G1 X89.452 Y141.153 E21.16275
G1 X126.153 Y104.452 E21.68807
G1 X126.153 Y103.946 E21.69319
G1 X88.946 Y141.153 E22.22576
G1 X88.441 Y141.153 E22.23088
G1 X126.153 Y103.441 E22.77068
G1 X126.153 Y102.935 E22.77580
G1 X87.935 Y141.153 E23.32284
G1 X87.429 Y141.153 E23.32796
G1 X126.153 Y102.429 E23.88225
G1 X126.153 Y101.923 E23.88737
G1 X86.923 Y141.153 E24.44890
G1 X86.417 Y141.153 E24.45402
G1 X126.153 Y101.417 E25.02278
G1 X126.153 Y100.911 E25.02790
G1 X85.911 Y141.153 E25.60391
G1 X85.405 Y141.153 E25.60903
G1 X126.153 Y100.405 E26.19228
G1 X126.153 Y99.899 E26.19740
G1 X84.899 Y141.153 E26.78789
G1 X84.393 Y141.153 E26.79301
G1 X126.153 Y99.393 E27.39074
G1 X126.153 Y98.888 E27.39586
G1 X83.888 Y141.153 E28.00083
G1 X83.382 Y141.153 E28.00595
G1 X126.153 Y98.382 E28.61817
G1 X126.153 Y97.876 E28.62329
G1 X82.876 Y141.153 E29.24274
G1 X82.370 Y141.153 E29.24786
G1 X126.153 Y97.370 E29.87455
G1 X126.153 Y96.864 E29.87967
G1 X81.864 Y141.153 E30.51361
G1 X81.358 Y141.153 E30.51873
G1 X126.153 Y96.358 E31.15990
G1 X126.153 Y95.852 E31.16502
G1 X80.852 Y141.153 E31.81344
G1 X80.346 Y141.153 E31.81856
G1 X126.153 Y95.346 E32.47422
G1 X126.153 Y94.841 E32.47934
G1 X79.841 Y141.153 E33.14224
G1 X79.335 Y141.153 E33.14736
G1 X126.153 Y94.335 E33.81750
G1 X126.153 Y93.829 E33.82262
G1 X78.829 Y141.153 E34.50000
G1 X78.323 Y141.153 E34.50512
G1 X126.153 Y93.323 E35.18974
G1 X126.153 Y92.817 E35.19486
G1 X77.817 Y141.153 E35.88672
G1 X77.311 Y141.153 E35.89184
G1 X126.153 Y92.311 E36.59095
G1 X126.153 Y91.805 E36.59607
G1 X76.805 Y141.153 E37.30241
G1 X76.299 Y141.153 E37.30753
G1 X126.153 Y91.299 E38.02112
G1 X126.153 Y90.794 E38.02624
G1 X75.794 Y141.153 E38.74706
G1 X75.288 Y141.153 E38.75218
G1 X126.153 Y90.288 E39.48025
G1 X126.153 Y89.782 E39.48537
G1 X74.782 Y141.153 E40.22068
G1 X74.276 Y141.153 E40.22580
G1 X126.153 Y89.276 E40.96835
G1 X126.153 Y88.770 E40.97347
G1 X73.847 Y141.077 E41.72216
G1 X73.847 Y140.571 E41.72728
G1 X126.153 Y88.264 E42.47598
G1 X126.153 Y87.758 E42.48110
G1 X73.847 Y140.065 E43.22979
G1 X73.847 Y139.559 E43.23491
G1 X126.153 Y87.252 E43.98360
G1 X126.153 Y86.746 E43.98872
G1 X73.847 Y139.053 E44.73742
G1 X73.847 Y138.548 E44.74254
G1 X126.153 Y86.241 E45.49123
G1 X126.153 Y85.735 E45.49635
G1 X73.847 Y138.042 E46.24505
G1 X73.847 Y137.536 E46.25017
G1 X126.153 Y85.229 E46.99886
G1 X126.153 Y84.723 E47.00398
G1 X73.847 Y137.030 E47.75268
G1 X73.847 Y136.524 E47.75780
G1 X126.153 Y84.217 E48.50649
G1 X126.153 Y83.711 E48.51161
G1 X73.847 Y136.018 E49.26031
G1 X73.847 Y135.512 E49.26543
G1 X126.153 Y83.205 E50.01412
G1 X126.153 Y82.699 E50.01924
G1 X73.847 Y135.006 E50.76793
G1 X73.847 Y134.501 E50.77305
G1 X126.153 Y82.194 E51.52175
G1 X126.153 Y81.688 E51.52687
G1 X73.847 Y133.995 E52.27556
G1 X73.847 Y133.489 E52.28068
G1 X126.153 Y81.182 E53.02938
G1 X126.153 Y80.676 E53.03450
G1 X73.847 Y132.983 E53.78319
G1 X73.847 Y132.477 E53.78831
G1 X126.153 Y80.170 E54.53701
G1 X126.153 Y79.664 E54.54213
G1 X73.847 Y131.971 E55.29082
G1 X73.847 Y131.465 E55.29594
G1 X126.153 Y79.158 E56.04464
G1 X126.153 Y78.652 E56.04976
G1 X73.847 Y130.959 E56.79845
G1 X73.847 Y130.454 E56.80357
G1 X126.153 Y78.147 E57.55227
G1 X126.153 Y77.641 E57.55739
G1 X73.847 Y129.948 E58.30608
G1 X73.847 Y129.442 E58.31120
G1 X126.153 Y77.135 E59.05989
G1 X126.153 Y76.629 E59.06501
G1 X73.847 Y128.936 E59.81371
G1 X73.847 Y128.430 E59.81883
G1 X126.153 Y76.123 E60.56752
G1 X126.153 Y75.617 E60.57264
G1 X73.847 Y127.924 E61.32134
G1 X73.847 Y127.418 E61.32646
G1 X126.153 Y75.111 E62.07515
G1 X126.153 Y74.605 E62.08027
G1 X73.847 Y126.912 E62.82897
G1 X73.847 Y126.406 E62.83409
G1 X126.153 Y74.099 E63.58278
G1 X126.153 Y73.594 E63.58790
G1 X73.847 Y125.901 E64.33660
G1 X73.847 Y125.395 E64.34172
G1 X126.153 Y73.088 E65.09041
G1 X126.153 Y72.582 E65.09553
G1 X73.847 Y124.889 E65.84423
G1 X73.847 Y124.383 E65.84935
G1 X126.153 Y72.076 E66.59804
G1 X126.153 Y71.570 E66.60316
G1 X73.847 Y123.877 E67.35185
G1 X73.847 Y123.371 E67.35697
G1 X126.153 Y71.064 E68.10567
G1 X126.153 Y70.558 E68.11079
G1 X73.847 Y122.865 E68.85948
G1 X73.847 Y122.359 E68.86460
G1 X126.153 Y70.052 E69.61330
G1 X126.153 Y69.547 E69.61842
G1 X73.847 Y121.854 E70.36711
G1 X73.847 Y121.348 E70.37223
G1 X126.153 Y69.041 E71.12093
G1 X126.153 Y68.535 E71.12605
G1 X73.847 Y120.842 E71.87474
G1 X73.847 Y120.336 E71.87986
G1 X126.153 Y68.029 E72.62856
G1 X126.153 Y67.523 E72.63368
G1 X73.847 Y119.830 E73.38237
G1 X73.847 Y119.324 E73.38749
G1 X126.153 Y67.017 E74.13619
G1 X126.153 Y66.511 E74.14131
G1 X73.847 Y118.818 E74.89000
G1 X73.847 Y118.312 E74.89512
G1 X126.153 Y66.005 E75.64381
G1 X126.153 Y65.500 E75.64893
G1 X73.847 Y117.807 E76.39763
G1 X73.847 Y117.301 E76.40275
G1 X126.153 Y64.994 E77.15144
G1 X126.153 Y64.488 E77.15656
G1 X73.847 Y116.795 E77.90526
G1 X73.847 Y116.289 E77.91038
G1 X126.153 Y63.982 E78.65907
G1 X126.153 Y63.476 E78.66419
G1 X73.847 Y115.783 E79.41289
G1 X73.847 Y115.277 E79.41801
G1 X126.153 Y62.970 E80.16670
G1 X126.153 Y62.464 E80.17182
G1 X73.847 Y114.771 E80.92052
G1 X73.847 Y114.265 E80.92564
G1 X126.153 Y61.958 E81.67433
G1 X126.153 Y61.453 E81.67945
G1 X73.847 Y113.759 E82.42814
G1 X73.847 Y113.254 E82.43326
G1 X126.153 Y60.947 E83.18196
G1 X126.153 Y60.441 E83.18708
G1 X73.847 Y112.748 E83.93577
G1 X73.847 Y112.242 E83.94089
G1 X126.153 Y59.935 E84.68959
G1 X126.153 Y59.429 E84.69471
G1 X73.847 Y111.736 E85.44340
G1 X73.847 Y111.230 E85.44852
G1 X126.153 Y58.923 E86.19722
G1 X126.153 Y58.847 E86.19799
G1 X125.724 Y58.847 E86.20234
G1 X73.847 Y110.724 E86.94489
G1 X73.847 Y110.218 E86.95001
G1 X125.218 Y58.847 E87.68532
G1 X124.712 Y58.847 E87.69044
G1 X73.847 Y109.712 E88.41850
G1 X73.847 Y109.207 E88.42362
G1 X124.207 Y58.847 E89.14445
G1 X123.701 Y58.847 E89.14957
G1 X73.847 Y108.701 E89.86316
G1 X73.847 Y108.195 E89.86828
G1 X123.195 Y58.847 E90.57462
G1 X122.689 Y58.847 E90.57974
G1 X73.847 Y107.689 E91.27885
G1 X73.847 Y107.183 E91.28397
G1 X122.183 Y58.847 E91.97583
G1 X121.677 Y58.847 E91.98095
G1 X73.847 Y106.677 E92.66558
G1 X73.847 Y106.171 E92.67070
G1 X121.171 Y58.847 E93.34808
G1 X120.665 Y58.847 E93.35320
G1 X73.847 Y105.665 E94.02334
G1 X73.847 Y105.160 E94.02846
G1 X120.160 Y58.847 E94.69136
G1 X119.654 Y58.847 E94.69648
G1 X73.847 Y104.654 E95.35214
G1 X73.847 Y104.148 E95.35726
G1 X119.148 Y58.847 E96.00568
G1 X118.642 Y58.847 E96.01080
G1 X73.847 Y103.642 E96.65198
G1 X73.847 Y103.136 E96.65710
G1 X118.136 Y58.847 E97.29103
G1 X117.630 Y58.847 E97.29615
G1 X73.847 Y102.630 E97.92285
G1 X73.847 Y102.124 E97.92797
G1 X117.124 Y58.847 E98.54742
G1 X116.618 Y58.847 E98.55254
G1 X73.847 Y101.618 E99.16476
G1 X73.847 Y101.112 E99.16988
G1 X116.113 Y58.847 E99.77485
G1 X115.607 Y58.847 E99.77997
G1 X73.847 Y100.607 E100.37770
G1 X73.847 Y100.101 E100.38282
G1 X115.101 Y58.847 E100.97331
G1 X114.595 Y58.847 E100.97843
G1 X73.847 Y99.595 E101.56168
G1 X73.847 Y99.089 E101.56680
G1 X114.089 Y58.847 E102.14281
G1 X113.583 Y58.847 E102.14793
G1 X73.847 Y98.583 E102.71670
G1 X73.847 Y98.077 E102.72182
G1 X113.077 Y58.847 E103.28335
G1 X112.571 Y58.847 E103.28847
G1 X73.847 Y97.571 E103.84276
G1 X73.847 Y97.065 E103.84788
G1 X112.065 Y58.847 E104.39492
G1 X111.560 Y58.847 E104.40004
G1 X73.847 Y96.560 E104.93985
G1 X73.847 Y96.054 E104.94497
G1 X111.054 Y58.847 E105.47753
G1 X110.548 Y58.847 E105.48265
G1 X73.847 Y95.548 E106.00798
G1 X73.847 Y95.042 E106.01310
G1 X110.042 Y58.847 E106.53118
G1 X109.536 Y58.847 E106.53630
G1 X73.847 Y94.536 E107.04714
G1 X73.847 Y94.030 E107.05226
G1 X109.030 Y58.847 E107.55586
G1 X108.524 Y58.847 E107.56098
G1 X73.847 Y93.524 E108.05734
G1 X73.847 Y93.018 E108.06246
G1 X108.018 Y58.847 E108.55158
G1 X107.513 Y58.847 E108.55670
G1 X73.847 Y92.513 E109.03858
G1 X73.847 Y92.007 E109.04370
G1 X107.007 Y58.847 E109.51833
G1 X106.501 Y58.847 E109.52345
G1 X73.847 Y91.501 E109.99085
G1 X73.847 Y90.995 E109.99597
G1 X105.995 Y58.847 E110.45612
G1 X105.489 Y58.847 E110.46124
G1 X73.847 Y90.489 E110.91416
G1 X73.847 Y89.983 E110.91928
G1 X104.983 Y58.847 E111.36495
G1 X104.477 Y58.847 E111.37007
G1 X73.847 Y89.477 E111.80851
G1 X73.847 Y88.971 E111.81363
G1 X103.971 Y58.847 E112.24482
G1 X103.466 Y58.847 E112.24994
G1 X73.847 Y88.465 E112.67389
G1 X73.847 Y87.960 E112.67901
G1 X102.960 Y58.847 E113.09572
G1 X102.454 Y58.847 E113.10084
G1 X73.847 Y87.454 E113.51031
G1 X73.847 Y86.948 E113.51543
G1 X101.948 Y58.847 E113.91765
G1 X101.442 Y58.847 E113.92277
G1 X73.847 Y86.442 E114.31776
G1 X73.847 Y85.936 E114.32288
G1 X100.936 Y58.847 E114.71063
G1 X100.430 Y58.847 E114.71575
G1 X73.847 Y85.430 E115.09625
G1 X73.847 Y84.924 E115.10137
G1 X99.924 Y58.847 E115.47464
G1 X99.418 Y58.847 E115.47976
G1 X73.847 Y84.418 E115.84578
G1 X73.847 Y83.913 E115.85090
G1 X98.913 Y58.847 E116.20968
G1 X98.407 Y58.847 E116.21480
G1 X73.847 Y83.407 E116.56635
G1 X73.847 Y82.901 E116.57147
G1 X97.901 Y58.847 E116.91577
G1 X97.395 Y58.847 E116.92089
G1 X73.847 Y82.395 E117.25795
G1 X73.847 Y81.889 E117.26307
G1 X96.889 Y58.847 E117.59289
