; generated by Slic3r 1.3.0 on 2019-10-21 at 12:04:27

; external perimeters extrusion width = 0.33mm (0.81mm^3/s)
; perimeters extrusion width = 0.42mm (1.63mm^3/s)
; infill extrusion width = 0.38mm (1.44mm^3/s)
; solid infill extrusion width = 0.42mm (1.63mm^3/s)
; top infill extrusion width = 0.42mm (1.30mm^3/s)
; support material extrusion width = 0.33mm (1.25mm^3/s)

M107
M190 S60 ; set bed temperature and wait for it to be reached
M104 S210 ; set temperature
G28 ; home all axes
M106 S255; turn fan on
G1 Z5 F5000 ; lift nozzle

; Filament gcode

M109 S210 ; set temperature and wait for it to be reached
G21 ; set units to millimeters
G90 ; use absolute coordinates
M82 ; use absolute distances for extrusion
G92 E0
G1 Z0.250 F7800.000
G1 E-2.00000 F2400.00000
G92 E0
G1 X73.816 Y59.543 F7800.000
G1 E2.00000 F2400.00000
G1 F1200
G1 X75.562 Y58.105 E2.10494
G1 X78.723 Y57.277 E2.25656
G1 X141.244 Y57.277 E5.15709
G1 X143.471 Y57.674 E5.26204
G1 X145.424 Y58.816 E5.36698
G1 X146.862 Y60.562 E5.47193
G1 X147.691 Y63.723 E5.62355
G1 X147.691 Y156.277 E9.91736
G1 X147.294 Y158.504 E10.02230
G1 X146.152 Y160.457 E10.12725
G1 X144.406 Y161.895 E10.23219
G1 X141.244 Y162.723 E10.38382
G1 X78.723 Y162.723 E13.28434
G1 X76.496 Y162.326 E13.38929
G1 X74.543 Y161.184 E13.49423
G1 X73.105 Y159.438 E13.59918
G1 X72.277 Y156.277 E13.75080
G1 X72.277 Y63.723 E18.04461
G1 X72.674 Y61.496 E18.14955
G1 X73.793 Y59.582 E18.25241
G1 E16.25241 F2400.00000
G92 E0
G1 X131.965 Y146.965 F7800.000
G1 E2.00000 F2400.00000
G1 F1200
G1 X88.035 Y146.965 E4.03799
G1 X88.035 Y73.035 E7.46776
G1 X131.965 Y73.035 E9.50576
G1 X131.965 Y146.920 E12.93344
G1 X132.411 Y147.411 F7800.000
G1 F1200
G1 X87.589 Y147.411 E15.01285
G1 X87.589 Y72.589 E18.48403
G1 X132.411 Y72.589 E20.56344
G1 X132.411 Y147.366 E24.03254
G1 X132.857 Y147.857 F7800.000
G1 F1200
G1 X87.143 Y147.857 E26.15336
G1 X87.143 Y72.143 E29.66596
G1 X132.857 Y72.143 E31.78678
G1 X132.857 Y147.812 E35.29729
G1 X133.304 Y148.304 F7800.000
G1 F1200
G1 X86.696 Y148.304 E37.45953
G1 X86.696 Y71.696 E41.01354
G1 X133.304 Y71.696 E43.17578
G1 X133.304 Y148.259 E46.72771
G1 X133.750 Y148.750 F7800.000
G1 F1200
G1 X86.250 Y148.750 E48.93136
G1 X86.250 Y71.250 E52.52679
G1 X133.750 Y71.250 E54.73044
G1 X133.750 Y148.705 E58.32378
G1 X133.467 Y148.650 F7800.000
G1 E56.32378 F2400.00000
G92 E0
G1 X131.345 Y146.692 F7800.000
G1 E2.00000 F2400.00000
G1 F1200
G1 X131.692 Y146.345 E2.02290
G1 X131.692 Y145.710 E2.05246
G1 X130.710 Y146.692 E2.11718
G1 X130.076 Y146.692 E2.14674
G1 X131.692 Y145.076 E2.25327
G1 X131.692 Y144.442 E2.28284
G1 X129.442 Y146.692 E2.43118
G1 X128.807 Y146.692 E2.46075
G1 X131.692 Y143.807 E2.65091
G1 X131.692 Y143.173 E2.68047
G1 X128.173 Y146.692 E2.91245
G1 X127.539 Y146.692 E2.94202
G1 X131.692 Y142.539 E3.21580
G1 X131.692 Y141.905 E3.24537
G1 X126.905 Y146.692 E3.56097
G1 X126.270 Y146.692 E3.59054
G1 X131.692 Y141.270 E3.94796
G1 X131.692 Y140.636 E3.97753
G1 X125.636 Y146.692 E4.37676
G1 X125.002 Y146.692 E4.40633
G1 X131.692 Y140.002 E4.84737
G1 X131.692 Y139.367 E4.87694
G1 X124.367 Y146.692 E5.35981
G1 X123.733 Y146.692 E5.38937
G1 X131.692 Y138.733 E5.91405
G1 X131.692 Y138.099 E5.94362
G1 X123.099 Y146.692 E6.51011
G1 X122.465 Y146.692 E6.53968
G1 X131.692 Y137.465 E7.14799
G1 X131.692 Y136.830 E7.17756
G1 X121.830 Y146.692 E7.82768
G1 X121.196 Y146.692 E7.85725
G1 X131.692 Y136.196 E8.54918
G1 X131.692 Y135.562 E8.57875
G1 X120.562 Y146.692 E9.31251
G1 X119.928 Y146.692 E9.34207
G1 X131.692 Y134.928 E10.11764
G1 X131.692 Y134.293 E10.14721
G1 X119.293 Y146.692 E10.96459
G1 X118.659 Y146.692 E10.99416
G1 X131.692 Y133.659 E11.85336
G1 X131.692 Y133.025 E11.88293
G1 X118.025 Y146.692 E12.78394
G1 X117.390 Y146.692 E12.81351
G1 X131.692 Y132.390 E13.75634
G1 X131.692 Y131.756 E13.78590
G1 X116.756 Y146.692 E14.77055
G1 X116.122 Y146.692 E14.80012
G1 X131.692 Y131.122 E15.82657
G1 X131.692 Y130.488 E15.85614
G1 X115.488 Y146.692 E16.92442
G1 X114.853 Y146.692 E16.95398
G1 X131.692 Y129.853 E18.06407
G1 X131.692 Y129.219 E18.09364
G1 X114.219 Y146.692 E19.24554
G1 X113.585 Y146.692 E19.27511
G1 X131.692 Y128.585 E20.46883
G1 X131.692 Y127.950 E20.49840
G1 X112.950 Y146.692 E21.73393
G1 X112.316 Y146.692 E21.76350
G1 X131.692 Y127.316 E23.04085
G1 X131.692 Y126.682 E23.07042
G1 X111.682 Y146.692 E24.38958
G1 X111.048 Y146.692 E24.41915
G1 X131.692 Y126.048 E25.78013
G1 X131.692 Y125.413 E25.80970
G1 X110.413 Y146.692 E27.21249
G1 X109.779 Y146.692 E27.24206
G1 X131.692 Y124.779 E28.68667
G1 X131.692 Y124.145 E28.71624
G1 X109.145 Y146.692 E30.20266
G1 X108.511 Y146.692 E30.23223
G1 X131.692 Y123.511 E31.76047
G1 X131.692 Y122.876 E31.79003
G1 X107.876 Y146.692 E33.36009
G1 X107.242 Y146.692 E33.38966
G1 X131.692 Y122.242 E35.00153
G1 X131.692 Y121.608 E35.03109
G1 X106.608 Y146.692 E36.68478
G1 X105.973 Y146.692 E36.71435
G1 X131.692 Y120.973 E38.40985
G1 X131.692 Y120.339 E38.43941
G1 X105.339 Y146.692 E40.17673
G1 X104.705 Y146.692 E40.20630
G1 X131.692 Y119.705 E41.98543
G1 X131.692 Y119.071 E42.01499
G1 X104.071 Y146.692 E43.83594
G1 X103.436 Y146.692 E43.86551
G1 X131.692 Y118.436 E45.72827
G1 X131.692 Y117.802 E45.75784
G1 X102.802 Y146.692 E47.66241
G1 X102.168 Y146.692 E47.69198
G1 X131.692 Y117.168 E49.63837
G1 X131.692 Y116.534 E49.66794
G1 X101.533 Y146.692 E51.65614
G1 X100.899 Y146.692 E51.68571
G1 X131.692 Y115.899 E53.71573
G1 X131.692 Y115.265 E53.74530
G1 X100.265 Y146.692 E55.81713
G1 X99.631 Y146.692 E55.84670
G1 X131.692 Y114.631 E57.96035
G1 X131.692 Y113.996 E57.98992
G1 X98.996 Y146.692 E60.14538
G1 X98.362 Y146.692 E60.17495
G1 X131.692 Y113.362 E62.37223
G1 X131.692 Y112.728 E62.40180
G1 X97.728 Y146.692 E64.64090
G1 X97.094 Y146.692 E64.67046
G1 X131.692 Y112.094 E66.95137
G1 X131.692 Y111.459 E66.98094
G1 X96.459 Y146.692 E69.30367
G1 X95.825 Y146.692 E69.33323
G1 X131.692 Y110.825 E71.69778
G1 X131.692 Y110.191 E71.72734
G1 X95.191 Y146.692 E74.13370
G1 X94.556 Y146.692 E74.16327
G1 X131.692 Y109.556 E76.61144
G1 X131.692 Y108.922 E76.64101
G1 X93.922 Y146.692 E79.13099
G1 X93.288 Y146.692 E79.16056
G1 X131.692 Y108.288 E81.69236
G1 X131.692 Y107.654 E81.72193
G1 X92.654 Y146.692 E84.29554
G1 X92.019 Y146.692 E84.32511
G1 X131.692 Y107.019 E86.94054
G1 X131.692 Y106.385 E86.97011
G1 X91.385 Y146.692 E89.62736
G1 X90.751 Y146.692 E89.65692
G1 X131.692 Y105.751 E92.35599
G1 X131.692 Y105.117 E92.38555
G1 X90.116 Y146.692 E95.12643
G1 X89.482 Y146.692 E95.15600
G1 X131.692 Y104.482 E97.93869
G1 X131.692 Y103.848 E97.96826
G1 X88.848 Y146.692 E100.79276
G1 X88.308 Y146.692 E100.81793
G1 X88.308 Y146.597 E100.82233
G1 X131.692 Y103.214 E103.68242
G1 X131.692 Y102.579 E103.71199
G1 X88.308 Y145.963 E106.57208
G1 X88.308 Y145.329 E106.60165
G1 X131.692 Y101.945 E109.46175
G1 X131.692 Y101.311 E109.49131
G1 X88.308 Y144.695 E112.35141
G1 X88.308 Y144.060 E112.38097
G1 X131.692 Y100.677 E115.24107
G1 X131.692 Y100.042 E115.27063
G1 X88.308 Y143.426 E118.13073
G1 X88.308 Y142.792 E118.16029
G1 X131.692 Y99.408 E121.02039
G1 X131.692 Y98.774 E121.04995
G1 X88.308 Y142.157 E123.91005
G1 X88.308 Y141.523 E123.93962
G1 X131.692 Y98.139 E126.79971
G1 X131.692 Y97.505 E126.82928
G1 X88.308 Y140.889 E129.68937
G1 X88.308 Y140.255 E129.71894
G1 X131.692 Y96.871 E132.57903
G1 X131.692 Y96.237 E132.60860
G1 X88.308 Y139.620 E135.46869
G1 X88.308 Y138.986 E135.49826
G1 X131.692 Y95.602 E138.35835
G1 X131.692 Y94.968 E138.38792
G1 X88.308 Y138.352 E141.24801
G1 X88.308 Y137.717 E141.27758
G1 X131.692 Y94.334 E144.13767
G1 X131.692 Y93.700 E144.16724
G1 X88.308 Y137.083 E147.02733
G1 X88.308 Y136.449 E147.05690
G1 X131.692 Y93.065 E149.91699
G1 X131.692 Y92.431 E149.94656
G1 X88.308 Y135.815 E152.80665
G1 X88.308 Y135.180 E152.83622
G1 X131.692 Y91.797 E155.69631
G1 X131.692 Y91.162 E155.72588
G1 X88.308 Y134.546 E158.58597
G1 X88.308 Y133.912 E158.61554
G1 X131.692 Y90.528 E161.47563
G1 X131.692 Y89.894 E161.50520
G1 X88.308 Y133.278 E164.36529
G1 X88.308 Y132.643 E164.39486
G1 X131.692 Y89.260 E167.25495
G1 X131.692 Y88.625 E167.28452
G1 X88.308 Y132.009 E170.14462
G1 X88.308 Y131.375 E170.17418
G1 X131.692 Y87.991 E173.03428
G1 X131.692 Y87.357 E173.06384
G1 X88.308 Y130.740 E175.92394
G1 X88.308 Y130.106 E175.95350
G1 X131.692 Y86.722 E178.81360
G1 X131.692 Y86.088 E178.84316
G1 X88.308 Y129.472 E181.70326
G1 X88.308 Y128.838 E181.73283
G1 X131.692 Y85.454 E184.59292
G1 X131.692 Y84.820 E184.62249
G1 X88.308 Y128.203 E187.48258
G1 X88.308 Y127.569 E187.51215
G1 X131.692 Y84.185 E190.37224
G1 X131.692 Y83.551 E190.40181
G1 X88.308 Y126.935 E193.26190
G1 X88.308 Y126.301 E193.29147
G1 X131.692 Y82.917 E196.15156
G1 X131.692 Y82.283 E196.18113
G1 X88.308 Y125.666 E199.04122
G1 X88.308 Y125.032 E199.07079
G1 X131.692 Y81.648 E201.93088
G1 X131.692 Y81.014 E201.96045
G1 X88.308 Y124.398 E204.82054
G1 X88.308 Y123.763 E204.85011
G1 X131.692 Y80.380 E207.71020
G1 X131.692 Y79.745 E207.73977
G1 X88.308 Y123.129 E210.59986
G1 X88.308 Y122.495 E210.62943
G1 X131.692 Y79.111 E213.48952
G1 X131.692 Y78.477 E213.51909
G1 X88.308 Y121.861 E216.37918
G1 X88.308 Y121.226 E216.40875
G1 X131.692 Y77.843 E219.26884
G1 X131.692 Y77.208 E219.29841
G1 X88.308 Y120.592 E222.15850
G1 X88.308 Y119.958 E222.18807
G1 X131.692 Y76.574 E225.04816
G1 X131.692 Y75.940 E225.07773
G1 X88.308 Y119.323 E227.93783
G1 X88.308 Y118.689 E227.96739
G1 X131.692 Y75.305 E230.82749
G1 X131.692 Y74.671 E230.85705
G1 X88.308 Y118.055 E233.71715
G1 X88.308 Y117.421 E233.74671
G1 X131.692 Y74.037 E236.60681
G1 X131.692 Y73.403 E236.63637
G1 X88.308 Y116.786 E239.49647
G1 X88.308 Y116.152 E239.52604
G1 X131.152 Y73.308 E242.35054
G1 X130.518 Y73.308 E242.38011
G1 X88.308 Y115.518 E245.16280
G1 X88.308 Y114.884 E245.19237
G1 X129.884 Y73.308 E247.93325
G1 X129.249 Y73.308 E247.96282
G1 X88.308 Y114.249 E250.66188
G1 X88.308 Y113.615 E250.69145
G1 X128.615 Y73.308 E253.34869
G1 X127.981 Y73.308 E253.37826
G1 X88.308 Y112.981 E255.99369
G1 X88.308 Y112.346 E256.02326
G1 X127.346 Y73.308 E258.59688
G1 X126.712 Y73.308 E258.62645
G1 X88.308 Y111.712 E261.15825
G1 X88.308 Y111.078 E261.18782
G1 X126.078 Y73.308 E263.67780
G1 X125.444 Y73.308 E263.70737
G1 X88.308 Y110.444 E266.15554
G1 X88.308 Y109.809 E266.18511
G1 X124.809 Y73.308 E268.59147
G1 X124.175 Y73.308 E268.62104
G1 X88.308 Y109.175 E270.98558
G1 X88.308 Y108.541 E271.01515
G1 X123.541 Y73.308 E273.33787
G1 X122.906 Y73.308 E273.36744
G1 X88.308 Y107.906 E275.64835
G1 X88.308 Y107.272 E275.67792
G1 X122.272 Y73.308 E277.91702
G1 X121.638 Y73.308 E277.94659
G1 X88.308 Y106.638 E280.14387
G1 X88.308 Y106.004 E280.17344
G1 X121.004 Y73.308 E282.32890
G1 X120.369 Y73.308 E282.35847
G1 X88.308 Y105.369 E284.47212
G1 X88.308 Y104.735 E284.50169
G1 X119.735 Y73.308 E286.57353
G1 X119.101 Y73.308 E286.60309
G1 X88.308 Y104.101 E288.63312
G1 X88.308 Y103.467 E288.66268
G1 X118.467 Y73.308 E290.65089
G1 X117.832 Y73.308 E290.68046
G1 X88.308 Y102.832 E292.62685
G1 X88.308 Y102.198 E292.65642
G1 X117.198 Y73.308 E294.56099
G1 X116.564 Y73.308 E294.59056
G1 X88.308 Y101.564 E296.45332
G1 X88.308 Y100.929 E296.48289
G1 X115.929 Y73.308 E298.30384
G1 X115.295 Y73.308 E298.33340
G1 X88.308 Y100.295 E300.11253
G1 X88.308 Y99.661 E300.14210
G1 X114.661 Y73.308 E301.87942
G1 X114.027 Y73.308 E301.90899
G1 X88.308 Y99.027 E303.60449
G1 X88.308 Y98.392 E303.63406
G1 X113.392 Y73.308 E305.28774
G1 X112.758 Y73.308 E305.31731
G1 X88.308 Y97.758 E306.92918
G1 X88.308 Y97.124 E306.95875
G1 X112.124 Y73.308 E308.52880
G1 X111.489 Y73.308 E308.55837
G1 X88.308 Y96.489 E310.08661
G1 X88.308 Y95.855 E310.11618
G1 X110.855 Y73.308 E311.60261
G1 X110.221 Y73.308 E311.63217
G1 X88.308 Y95.221 E313.07678
G1 X88.308 Y94.587 E313.10635
G1 X109.587 Y73.308 E314.50915
G1 X108.952 Y73.308 E314.53871
G1 X88.308 Y93.952 E315.89970
G1 X88.308 Y93.318 E315.92926
G1 X108.318 Y73.308 E317.24843
G1 X107.684 Y73.308 E317.27800
G1 X88.308 Y92.684 E318.55535
G1 X88.308 Y92.050 E318.58491
G1 X107.050 Y73.308 E319.82045
G1 X106.415 Y73.308 E319.85002
G1 X88.308 Y91.415 E321.04374
G1 X88.308 Y90.781 E321.07331
G1 X105.781 Y73.308 E322.22521
G1 X105.147 Y73.308 E322.25478
G1 X88.308 Y90.147 E323.36487
G1 X88.308 Y89.512 E323.39444
G1 X104.512 Y73.308 E324.46271
G1 X103.878 Y73.308 E324.49228
G1 X88.308 Y88.878 E325.51874
G1 X88.308 Y88.244 E325.54831
G1 X103.244 Y73.308 E326.53295
G1 X102.610 Y73.308 E326.56252
G1 X88.308 Y87.610 E327.50535
G1 X88.308 Y86.975 E327.53492
G1 X101.975 Y73.308 E328.43593
G1 X101.341 Y73.308 E328.46550
G1 X88.308 Y86.341 E329.32470
G1 X88.308 Y85.707 E329.35427
G1 X100.707 Y73.308 E330.17165
G1 X100.072 Y73.308 E330.20122
G1 X88.308 Y85.072 E330.97679
G1 X88.308 Y84.438 E331.00636
G1 X99.438 Y73.308 E331.74011
G1 X98.804 Y73.308 E331.76968
G1 X88.308 Y83.804 E332.46162
G1 X88.308 Y83.170 E332.49119
G1 X98.170 Y73.308 E333.14131
G1 X97.535 Y73.308 E333.17088
G1 X88.308 Y82.535 E333.77919
G1 X88.308 Y81.901 E333.80876
G1 X96.901 Y73.308 E334.37525
G1 X96.267 Y73.308 E334.40482
G1 X88.308 Y81.267 E334.92950
G1 X88.308 Y80.633 E334.95906
G1 X95.633 Y73.308 E335.44193
G1 X94.998 Y73.308 E335.47150
G1 X88.308 Y79.998 E335.91255
G1 X88.308 Y79.364 E335.94211
G1 X94.364 Y73.308 E336.34135
G1 X93.730 Y73.308 E336.37092
G1 X88.308 Y78.730 E336.72833
G1 X88.308 Y78.095 E336.75790
G1 X93.095 Y73.308 E337.07351
G1 X92.461 Y73.308 E337.10307
G1 X88.308 Y77.461 E337.37686
G1 X88.308 Y76.827 E337.40643
G1 X91.827 Y73.308 E337.63840
G1 X91.193 Y73.308 E337.66797
G1 X88.308 Y76.193 E337.85813
G1 X88.308 Y75.558 E337.88770
G1 X90.558 Y73.308 E338.03604
G1 X89.924 Y73.308 E338.06561
G1 X88.308 Y74.924 E338.17214
G1 X88.308 Y74.290 E338.20171
G1 X89.290 Y73.308 E338.26642
G1 X88.655 Y73.308 E338.29599
G1 X88.308 Y73.655 E338.31888
G1 Z0.250 F7800.000
G1 E336.31888 F2400.00000
G92 E0
G1 X85.004 Y69.973 F7800.000
G1 E2.00000 F2400.00000
G1 F1200
G1 X84.973 Y69.973 E2.00145
G1 X84.973 Y149.197 E5.67685
G1 X85.004 Y149.197 E5.67830
G1 X85.004 Y69.973 E9.35369
G1 X85.897 Y69.973 E9.39511
G1 X85.897 Y70.282 E9.40943
G1 X86.790 Y70.282 E9.45084
G1 X86.790 Y69.973 E9.46516
G1 X87.683 Y69.973 E9.50657
G1 X87.683 Y70.282 E9.52089
G1 X88.575 Y70.282 E9.56231
G1 X88.575 Y69.973 E9.57663
G1 X89.468 Y69.973 E9.61804
G1 X89.468 Y70.282 E9.63236
G1 X90.361 Y70.282 E9.67377
G1 X90.361 Y69.973 E9.68809
G1 X91.253 Y69.973 E9.72951
G1 X91.253 Y70.282 E9.74383
G1 X92.146 Y70.282 E9.78524
G1 X92.146 Y69.973 E9.79956
G1 X93.039 Y69.973 E9.84098
G1 X93.039 Y70.282 E9.85529
G1 X93.931 Y70.282 E9.89671
G1 X93.931 Y69.973 E9.91103
G1 X94.824 Y69.973 E9.95244
G1 X94.824 Y70.282 E9.96676
G1 X95.717 Y70.282 E10.00818
G1 X95.717 Y69.973 E10.02250
G1 X96.610 Y69.973 E10.06391
G1 X96.610 Y70.282 E10.07823
G1 X97.502 Y70.282 E10.11964
G1 X97.502 Y69.973 E10.13396
G1 X98.395 Y69.973 E10.17538
G1 X98.395 Y70.282 E10.18970
G1 X99.288 Y70.282 E10.23111
G1 X99.288 Y69.973 E10.24543
G1 X100.180 Y69.973 E10.28684
G1 X100.180 Y70.282 E10.30116
G1 X101.073 Y70.282 E10.34258
G1 X101.073 Y69.973 E10.35690
G1 X101.966 Y69.973 E10.39831
G1 X101.966 Y70.282 E10.41263
G1 X102.858 Y70.282 E10.45405
G1 X102.858 Y69.973 E10.46836
G1 X103.751 Y69.973 E10.50978
G1 X103.751 Y70.282 E10.52410
G1 X104.644 Y70.282 E10.56551
G1 X104.644 Y69.973 E10.57983
G1 X105.537 Y69.973 E10.62125
G1 X105.537 Y70.282 E10.63557
G1 X106.429 Y70.282 E10.67698
G1 X106.429 Y69.973 E10.69130
G1 X107.322 Y69.973 E10.73271
G1 X107.322 Y70.282 E10.74703
G1 X108.215 Y70.282 E10.78845
G1 X108.215 Y69.973 E10.80277
G1 X109.107 Y69.973 E10.84418
G1 X109.107 Y70.282 E10.85850
G1 X110.000 Y70.282 E10.89992
G1 X110.000 Y69.973 E10.91423
G1 X110.893 Y69.973 E10.95565
G1 X110.893 Y70.282 E10.96997
G1 X111.785 Y70.282 E11.01138
G1 X111.785 Y69.973 E11.02570
G1 X112.678 Y69.973 E11.06712
G1 X112.678 Y70.282 E11.08144
G1 X113.571 Y70.282 E11.12285
G1 X113.571 Y69.973 E11.13717
G1 X114.463 Y69.973 E11.17858
G1 X114.463 Y70.282 E11.19290
G1 X115.356 Y70.282 E11.23432
G1 X115.356 Y69.973 E11.24864
G1 X116.249 Y69.973 E11.29005
G1 X116.249 Y70.282 E11.30437
